X: 305559
M: 2/4
L: 1/16
K: G
V: 1 staves=3
d2 |\
g2d2e2d2 | B2d2d2d2 | g2d2e2d2 | B2G2G2d2 |\
g2d2e2d2 | B2d2d2B2 | c2e2d2c2 | B2G2G2 :|
V: 2
z2 |\
z2[B2D2][B2D2][B2D2] | z2[B2D2][B2D2][B2D2] | z2[B2D2][B2D2][B2D2] | z2[B2D2][B2D2][B2D2] |
z2[B2D2][B2D2][B2D2] | z2[B2D2][B2D2][B2D2] | z2[A2D2][A2D2][A2D2] | [B2D2][B2D2][B2D2] :|
z2 |\
V: 3 clef=bass middle=d
z2 |\
z2 |\
g4g4 | c'4c'4 | g4g4 | d2d2d2z2 |\
g4g4 | c'4c'4 | g4d4 | g2g2g2 |]


